X: 18
T: SCOTTISH GALLICIENNE
M: 4/4
L: 1/8
Q:1/4=80
K:C
|:g/2a/2g/2a/2g/2a/2g/2a/2 gece/2f/2|gf/2e/2d/2e/2f/2g/2 agec|
g/2a/2g/2a/2g/2a/2g/2a/2 gece/2f/2|gf/2e/2d/2e/2f/2d/2 cec2:|
|:ecc/2d/2e/2f/2 ecc/2d/2e/2c/2|1dgdg e/2f/2e/2d/2c/2d/2e/2f/2:|2dgdg e/
2f/2e/2d/2c2|
